X: 1
T: Missa Dominicalis / Kyrie
N: Derived from Ort1001a-Missa_Dominicalis-Kyrie.krn
C: Marbrianus de Orto
%%abc-version 2.0
%%abcx-abcm2ps-target-version 5.9.1 (29 Sep 2008)
%%abc-creator hum2abc beta
%%abcx-conversion-date 2019/02/17 07:28:36
%%abc-edited-by Jesse Rodin
%%abc-edited-by Jesse Rodin 8/11/2013
%%abcx-initial-encoding-date 2013/08/11/
%%humdrum-veritas 1099168139
%%humdrum-veritas-data 3764859688
%%linebreak <none>
%%barnumbers 0
L: 1/4
M: 3/1
Q: 1/2=120
%%staves [1 2 3 4]
V: 1 clef=treble
V: 2 clef=treble-8
V: 3 clef=treble-8
V: 4 clef=bass
K: F
[V:1] z12 | 
[V:2] d2_e3dd4c2 | 
[V:3] z12 | 
[V:4] z4D,4_E,4 | 
[V:1] d2_e3dd4c2 | 
[V:2] d2g3fd2e4 | 
[V:3] z12 | 
[V:4] D,2C,4D,2A,4 | 
[V:1] d2G3FD2E4 | 
[V:2] d2c4B2A4 | 
[V:3] d2_e3dd4c2 | 
[V:4] z12 | 
[V:1] D2F2G2B3AG2 | 
[V:2] B2A2G2d3cB2 | 
[V:3] d12- | 
[V:4] G,2F,2B,3A,G,4 | 
[V:1] F2A3GG4^F2 | 
[V:2] A2F3G/A/B2A4 | 
[V:3] d12 | 
[V:4] D,4F,2G,2D,4 | 
[V:1] G2B3Gd3cB2 | 
[V:2] B2G2g4g2de | 
[V:3] G12 | 
[V:4] D6B,4G,2 | 
[V:1] A2c3BG2A4 | 
[V:2] fga3ge2^f4 | 
[V:3] z12 | 
[V:4] F,6G,2D4 | 
[V:1] G4D4F4 | 
[V:2] g4z2G2A2B2 | 
[V:3] z4B4c2d2 | 
[V:4] G,8F,2D,2 | 
[V:1] G4G3AB4 | 
[V:2] c8z2d2 | 
[V:3] _e8d4 | 
[V:4] C,8G,4 | 
[V:1] A4z4z4 | 
[V:2] f3ga2d2fedc | 
[V:3] z2c3BAG^F4 | 
[V:4] F,3E,F,2G,2A,4 | 
[V:1] d3cB2A2G2F2 | 
[V:2] B3AG2A2c2A2 | 
[V:3] G4z2d2_e2d2 | 
[V:4] G,6F,2C,2D,2 | 
[V:1] G2A2B2AGF2A2 | 
[V:2] G2F2GABcdef2- | 
[V:3] c2d2z2G2B2c2 | 
[V:4] E,2D,2z4z2F,2 | 
[V:1] B2c3BAG^F3E | 
[V:2] f2g3fe2d4- | 
[V:3] d2_e3dcBA4 | 
[V:4] D,2C,4C,2D,4 | 
[V:1] G12 ||  
[V:2] d12 ||  
[V:3] G12 ||  
[V:4] z4G,8 ||  
[V:1]  [K:F] [K:clef=treble][M:4/2]z8 | 
[V:2]  [K:F] [K:clef=treble-8][M:4/2]z8 | 
[V:3]  [K:F] [K:clef=treble-8][M:4/2]z8 | 
[V:4]  [K:F] [K:clef=bass][M:4/2]D,4C,2G,2- | 
[V:1] z8 | 
[V:2] d4c2g2- | 
[V:3] z8 | 
[V:4] G,2F,2A,2G,2 | 
[V:1] z8 | 
[V:2] g2f4g2 | 
[V:3] z8 | 
[V:4] B,4A,2G,2 | 
[V:1] z8 | 
[V:2] f2g3^f/e/^f2 | 
[V:3] z8 | 
[V:4] B,4A,4 | 
[V:1] z8 | 
[V:2] g3fedf2 | 
[V:3] z8 | 
[V:4] G,2B,4A,2- | 
[V:1] z8 | 
[V:2] e2d4^c2 | 
[V:3] z8 | 
[V:4] A,G,F,2E,4 | 
[V:1] D4C4 | 
[V:2] d4z4 | 
[V:3] z8 | 
[V:4] D,3E,F,G,A,2 | 
[V:1] G4F2G2- | 
[V:2] z8 | 
[V:3] z8 | 
[V:4] B,2C2D2E2- | 
[V:1] GFD2E4 | 
[V:2] z4A4 | 
[V:3] z8 | 
[V:4] EDD4^C2 | 
[V:1] D3EFGA2- | 
[V:2] B3A/G/F3G | 
[V:3] d8- | 
[V:4] D4D,3E, | 
[V:1] A2G2F2G2- | 
[V:2] A2B2A2B2 | 
[V:3] d8 | 
[V:4] F,2G,2D,2G,2 | 
[V:1] G2A3Bc2 | 
[V:2] G2F2c4 | 
[V:3] c8 | 
[V:4] E,2F,2A,4 | 
[V:1] B4c2d2 | 
[V:2] d2_e3dB2 | 
[V:3] g8- | 
[V:4] G,4z2G,2 | 
[V:1] _e3dB2c2- | 
[V:2] c2_e2d2c2 | 
[V:3] g8- | 
[V:4] C,4G,2C,2 | 
[V:1] c2B2c2d2- | 
[V:2] d4c2B2- | 
[V:3] g8 | 
[V:4] G,4z4 | 
[V:1] d2cBA4 | 
[V:2] B4d4 | 
[V:3] f8 | 
[V:4] z4D,4 | 
[V:1] G4z4 | 
[V:2] z2B2A4 | 
[V:3] g4z4 | 
[V:4] E,2G,4F,2 | 
[V:1] D4E2G2- | 
[V:2] G4z4 | 
[V:3] z8 | 
[V:4] B,4A,2G,A, | 
[V:1] G2F2B4 | 
[V:2] z4z2d2 | 
[V:3] z8 | 
[V:4] B,CD4B,2 | 
[V:1] A2G2z2d2- | 
[V:2] e3fg3f | 
[V:3] z8 | 
[V:4] C3B,/A,/G,4 | 
[V:1] d2B2c3B/A/ | 
[V:2] d3efec2- | 
[V:3] z8 | 
[V:4] B,4A,3G, | 
[V:1] G4F4 | 
[V:2] c2c2d4 | 
[V:3] z8 | 
[V:4] E,4D,4 | 
[V:1] G3FEDD2- | 
[V:2] z8 | 
[V:3] z8 | 
[V:4] C,2G,3F,D,2 | 
[V:1] D2^C2D4 | 
[V:2] g4a3g | 
[V:3] z4f4 | 
[V:4] E,4D,4 | 
[V:1] z8 | 
[V:2] e3f/g/a2g2- | 
[V:3] g3fedd2- | 
[V:4] C,2C4B,2 | 
[V:1] z2A2B2d2- | 
[V:2] g2f2g2f2 | 
[V:3] d2c2d4 | 
[V:4] A,4G,2B,2- | 
[V:1] dcB2A4 | 
[V:2] d4f4 | 
[V:3] z2d4c2 | 
[V:4] B,A,G,2F,2A,2 | 
[V:1] B2G2F2A2- | 
[V:2] g4z2f2- | 
[V:3] d2_e2d2cB | 
[V:4] G,2C,2D,4 | 
[V:1] AGFED2G2 | 
[V:2] fga2g2e2 | 
[V:3] A4B2c2- | 
[V:4] F,4G,2C,2 | 
[V:1] A2c2B2d2- | 
[V:2] c2f2d2g2- | 
[V:3] cBAGd3c | 
[V:4] F,4G,4- | 
[V:1] dcB2A2c2 | 
[V:2] gfdef4 | 
[V:3] BAG2c2A2 | 
[V:4] G,4F,4 | 
[V:1] B2A3GG2- | 
[V:2] z2d4c2 | 
[V:3] d4G4 | 
[V:4] G,2D,2_E,4 | 
[V:1] G2^F2G4 ||  
[V:2] d8 ||  
[V:3] A4G4 ||  
[V:4] D,4G,4 ||  
[V:1]  [K:F] [K:clef=treble][M:3/1]z12 | 
[V:2]  [K:F] [K:clef=treble-8][M:3/1]G4A4B4 | 
[V:3]  [K:F] [K:clef=treble-8][M:3/1]d12 | 
[V:4]  [K:F] [K:clef=bass][M:3/1]G,4F,2D,2G,4 | 
[V:1] G8B4 | 
[V:2] c8B4 | 
[V:3] _e8d4 | 
[V:4] C,8G,3D, | 
[V:1] A4B3AG2F2 | 
[V:2] c2f2d2de2c2B | 
[V:3] c2d2G2B2c2d2 | 
[V:4] F,4z2G,2E,2D,2 | 
[V:1] G3FE2D2G2A2- | 
[V:2] c2BAG4z2c2 | 
[V:3] _e3dc2B2c3B | 
[V:4] C,6G,2E,2F,2- | 
[V:1] AFB3AG4^F2 | 
[V:2] f2d4e2d4 | 
[V:3] A2G2B2c2A4 | 
[V:4] F,2G,4C,2D,4 | 
[V:1] G8z2A2 | 
[V:2] _e2d2c2d2_e2f2 | 
[V:3] G8z4 | 
[V:4] z2D2_E2D2C2D2 | 
[V:1] B2A2G2A4B2 | 
[V:2] g2f2c2f2e2f2- | 
[V:3] d4_e2d2c2d2- | 
[V:4] G,2D,2z4z4 | 
[V:1] A2B3Ad4^c2 | 
[V:2] f2g3fd2e4 | 
[V:3] d2G4B2A4 | 
[V:4] z12 | 
[V:1] d3cB2A2G4 | 
[V:2] d4z4z4 | 
[V:3] B6c6 | 
[V:4] G,6F,2E,4 | 
[V:1] F4z4z4 | 
[V:2] A4B2c3BAG | 
[V:3] d6_e3dcB | 
[V:4] D,6C,6 | 
[V:1] z12 | 
[V:2] ^F4z4c3d | 
[V:3] A2B2A2G2A4 | 
[V:4] D,3E,F,2G,4F,2 | 
[V:1] B4A2G2A4 | 
[V:2] _e2d2f2g4^f2 | 
[V:3] G4z4z4 | 
[V:4] G,A,B,CD2_E2D4 | 
[V:1] B2AGF4G3F | 
[V:2] g3fd4B2c2- | 
[V:3] G4A4G4 | 
[V:4] z4D,4E,4 | 
[V:1] E2D2C2F4E2 | 
[V:2] c2F4c6- | 
[V:3] A8G4 | 
[V:4] C,2D,2F,4C,4 | 
[V:1] F2c2B2c3BA2 | 
[V:2] c2f2g2e2f4 | 
[V:3] F4z4c4- | 
[V:4] C2A,2G,2A,2F,4 | 
[V:1] G2D2E2F2G2A2 | 
[V:2] g4G2d2c2d2 | 
[V:3] c2B2c2A2G2F2 | 
[V:4] E,2G,2C,2D,2E,2D,2 | 
[V:1] B2A2d3cB2A2 | 
[V:2] B2c2B2d3ef2 | 
[V:3] G2A2B3cd4 | 
[V:4] G,2F,2G,2G,3F,E,D, | 
[V:1] c3BAGG4^F2 | 
[V:2] g4e4d4- | 
[V:3] _e3dcBc2A4 | 
[V:4] C,8D,4 | 
[V:1] G12 |]  
[V:2] d12 |]  
[V:3] G12 |]  
[V:4] G,12 |]  



